X: 24831
T: Maggie Shanley's
R: slide
M: 12/8
K: Amajor
A2B c2e dcB A3|A2B c2e f3 e3|A2B c2e dcB A2B|c2e dcB A3 A3:|
f2e c2e dcB A3|f2e c2e f3 e3|f2e c2e dcB A2B|c2e dcB A3 A3:|

